templates/default/images/icon_crst.svg

<svg id="Layer_1" data-name="Layer 1" xmlns="http://www.w3.org/2000/svg" xmlns:xlink="http://www.w3.org/1999/xlink" viewBox="0 0 320 320"><defs><style>.cls-1{fill:none;}.cls-2{clip-path:url(#clip-path);}.cls-3{fill:#52658b;}</style><clipPath id="clip-path"><rect class="cls-1" width="320" height="320"/></clipPath></defs><g class="cls-2"><path class="cls-3" d="M131.82,180.63,116,215h88l-15.8-34.37c-.09-.21-.14-.42-.21-.63H132c-.07.21-.12.42-.21.63M70,165H250V55H70Zm195,5a10,10,0,0,1-10,10H204.4l39.92,86.87a7.5,7.5,0,0,1-3.69,9.94,7.4,7.4,0,0,1-3.12.69,7.51,7.51,0,0,1-6.83-4.37L213.17,235H106.83L89.32,273.13a7.52,7.52,0,0,1-6.82,4.37,7.41,7.41,0,0,1-3.13-.69,7.51,7.51,0,0,1-3.69-9.94L115.6,180H65a10,10,0,0,1-10-10V50A10,10,0,0,1,65,40H255a10,10,0,0,1,10,10ZM320,0H0V320H320Z"/></g></svg>

<?xml version="1.0" encoding="utf-8"?>
<!-- Generator: Adobe Illustrator 26.4.1, SVG Export Plug-In . SVG Version: 6.00 Build 0)  -->
<svg version="1.1" id="Layer_1" xmlns="http://www.w3.org/2000/svg" xmlns:xlink="http://www.w3.org/1999/xlink" x="0px" y="0px"
	 viewBox="0 0 320 320" style="enable-background:new 0 0 320 320;" xml:space="preserve">
<style type="text/css">
	.st0{clip-path:url(#SVGID_00000067939753300702287110000000102471907732834957_);}
	.st1{fill:#4C6586;}
</style>
<g>
	<defs>
		<rect id="SVGID_1_" width="320" height="320"/>
	</defs>
	<clipPath id="SVGID_00000177457721615776456810000006372867839095683749_">
		<use xlink:href="#SVGID_1_"  style="overflow:visible;"/>
	</clipPath>
	<g style="clip-path:url(#SVGID_00000177457721615776456810000006372867839095683749_);">
		<path class="st1" d="M131.8,180.6L116,215h88l-15.8-34.4c-0.1-0.2-0.1-0.4-0.2-0.6h-56C131.9,180.2,131.9,180.4,131.8,180.6
			 M70,165h180V55H70V165z M265,170c0,5.5-4.5,10-10,10h-50.6l39.9,86.9c1.7,3.8,0.1,8.2-3.7,9.9c-1,0.5-2,0.7-3.1,0.7
			c-2.9,0-5.6-1.7-6.8-4.4L213.2,235H106.8l-17.5,38.1c-1.2,2.7-3.9,4.4-6.8,4.4c-1.1,0-2.1-0.2-3.1-0.7c-3.8-1.7-5.4-6.2-3.7-9.9
			l39.9-86.9H65c-5.5,0-10-4.5-10-10V50c0-5.5,4.5-10,10-10h190c5.5,0,10,4.5,10,10V170z M320,0H0v320h320V0z"/>
	</g>
</g>
</svg>
